static/img/kroki/80c5a2f165592a8a83b1ed244fc32305.svg

<?xml version="1.0" encoding="us-ascii" standalone="no"?><svg xmlns="http://www.w3.org/2000/svg" xmlns:xlink="http://www.w3.org/1999/xlink" contentStyleType="text/css" height="811px" preserveAspectRatio="none" style="width:509px;height:811px;" version="1.1" viewBox="0 0 509 811" width="509px" zoomAndPan="magnify"><defs/><g><!--class aws_efs_file_system--><g id="elem_aws_efs_file_system"><rect codeLine="23" fill="#3D176E" height="39.7891" id="aws_efs_file_system" rx="2.5" ry="2.5" style="stroke:#000D19;stroke-width:0.5;" width="212" x="7" y="765.33"/><ellipse cx="22" cy="785.2245" fill="#ADD1B2" rx="11" ry="11" style="stroke:#181818;stroke-width:1.0;"/><path d="M24.9688,790.8652 Q24.3906,791.162 23.75,791.3027 Q23.1094,791.4589 22.4063,791.4589 Q19.9063,791.4589 18.5781,789.8183 Q17.2656,788.162 17.2656,785.037 Q17.2656,781.912 18.5781,780.2558 Q19.9063,778.5995 22.4063,778.5995 Q23.1094,778.5995 23.75,778.7558 Q24.4063,778.912 24.9688,779.2089 L24.9688,781.9277 Q24.3438,781.3495 23.75,781.0839 Q23.1563,780.8027 22.5313,780.8027 Q21.1875,780.8027 20.5,781.8808 Q19.8125,782.9433 19.8125,785.037 Q19.8125,787.1308 20.5,788.2089 Q21.1875,789.2714 22.5313,789.2714 Q23.1563,789.2714 23.75,789.0058 Q24.3438,788.7245 24.9688,788.1464 L24.9688,790.8652 Z " fill="#000000"/><text fill="#D9B8FF" font-family="Helvetica" font-size="17" lengthAdjust="spacing" textLength="170" x="41" y="791.1098">aws_efs_file_system</text></g><!--class azure_storage_file_share--><g id="elem_azure_storage_file_share"><rect codeLine="26" fill="#3D176E" height="39.7891" id="azure_storage_file_share" rx="2.5" ry="2.5" style="stroke:#000D19;stroke-width:0.5;" width="249" x="253.5" y="765.33"/><ellipse cx="268.5" cy="785.2245" fill="#ADD1B2" rx="11" ry="11" style="stroke:#181818;stroke-width:1.0;"/><path d="M271.4688,790.8652 Q270.8906,791.162 270.25,791.3027 Q269.6094,791.4589 268.9063,791.4589 Q266.4063,791.4589 265.0781,789.8183 Q263.7656,788.162 263.7656,785.037 Q263.7656,781.912 265.0781,780.2558 Q266.4063,778.5995 268.9063,778.5995 Q269.6094,778.5995 270.25,778.7558 Q270.9063,778.912 271.4688,779.2089 L271.4688,781.9277 Q270.8438,781.3495 270.25,781.0839 Q269.6563,780.8027 269.0313,780.8027 Q267.6875,780.8027 267,781.8808 Q266.3125,782.9433 266.3125,785.037 Q266.3125,787.1308 267,788.2089 Q267.6875,789.2714 269.0313,789.2714 Q269.6563,789.2714 270.25,789.0058 Q270.8438,788.7245 271.4688,788.1464 L271.4688,790.8652 Z " fill="#000000"/><text fill="#D9B8FF" font-family="Helvetica" font-size="17" lengthAdjust="spacing" textLength="207" x="287.5" y="791.1098">azure_storage_file_share</text></g><!--class network_share--><g id="elem_network_share"><rect codeLine="29" fill="#3D176E" height="205.5703" id="network_share" rx="2.5" ry="2.5" style="stroke:#000D19;stroke-width:0.5;" width="220" x="135" y="438.76"/><ellipse cx="173.85" cy="458.6545" fill="#ADD1B2" rx="11" ry="11" style="stroke:#181818;stroke-width:1.0;"/><path d="M176.8188,464.2952 Q176.2406,464.592 175.6,464.7327 Q174.9594,464.8889 174.2563,464.8889 Q171.7563,464.8889 170.4281,463.2483 Q169.1156,461.592 169.1156,458.467 Q169.1156,455.342 170.4281,453.6858 Q171.7563,452.0295 174.2563,452.0295 Q174.9594,452.0295 175.6,452.1858 Q176.2563,452.342 176.8188,452.6389 L176.8188,455.3577 Q176.1938,454.7795 175.6,454.5139 Q175.0063,454.2327 174.3813,454.2327 Q173.0375,454.2327 172.35,455.3108 Q171.6625,456.3733 171.6625,458.467 Q171.6625,460.5608 172.35,461.6389 Q173.0375,462.7014 174.3813,462.7014 Q175.0063,462.7014 175.6,462.4358 Q176.1938,462.1545 176.8188,461.5764 L176.8188,464.2952 Z " fill="#000000"/><text fill="#D9B8FF" font-family="Helvetica" font-size="17" lengthAdjust="spacing" textLength="125" x="198.15" y="464.5398">network_share</text><line style="stroke:#000D19;stroke-width:0.5;" x1="136" x2="354" y1="478.5491" y2="478.5491"/><text fill="#D9B8FF" font-family="sans-serif" font-size="14" font-weight="bold" lengthAdjust="spacing" textLength="133" x="146" y="500.5442">share_encrypted</text><text fill="#D9B8FF" font-family="sans-serif" font-size="14" lengthAdjust="spacing" textLength="65" x="279" y="500.5442">: boolean</text><text fill="#D9B8FF" font-family="sans-serif" font-size="14" font-weight="bold" lengthAdjust="spacing" textLength="85" x="146" y="526.8411">share_iops</text><text fill="#D9B8FF" font-family="sans-serif" font-size="14" lengthAdjust="spacing" textLength="44" x="231" y="526.8411">: int64</text><text fill="#D9B8FF" font-family="sans-serif" font-size="14" font-weight="bold" lengthAdjust="spacing" textLength="84" x="146" y="553.1379">share_size</text><text fill="#D9B8FF" font-family="sans-serif" font-size="14" lengthAdjust="spacing" textLength="44" x="230" y="553.1379">: int64</text><text fill="#D9B8FF" font-family="sans-serif" font-size="14" font-weight="bold" lengthAdjust="spacing" textLength="101" x="146" y="579.4348">share_status</text><text fill="#D9B8FF" font-family="sans-serif" font-size="14" lengthAdjust="spacing" textLength="48" x="247" y="579.4348">: string</text><text fill="#D9B8FF" font-family="sans-serif" font-size="14" font-weight="bold" lengthAdjust="spacing" textLength="141" x="146" y="605.7317">share_throughput</text><text fill="#D9B8FF" font-family="sans-serif" font-size="14" lengthAdjust="spacing" textLength="57" x="287" y="605.7317">: double</text><text fill="#D9B8FF" font-family="sans-serif" font-size="14" font-weight="bold" lengthAdjust="spacing" textLength="87" x="146" y="632.0286">share_type</text><text fill="#D9B8FF" font-family="sans-serif" font-size="14" lengthAdjust="spacing" textLength="48" x="233" y="632.0286">: string</text></g><!--class resource--><g id="elem_resource"><rect codeLine="37" fill="#3D176E" height="310.7578" id="resource" rx="2.5" ry="2.5" style="stroke:#000D19;stroke-width:0.5;" width="227" x="131.5" y="7"/><ellipse cx="200.25" cy="26.8945" fill="#ADD1B2" rx="11" ry="11" style="stroke:#181818;stroke-width:1.0;"/><path d="M203.2188,32.5352 Q202.6406,32.832 202,32.9727 Q201.3594,33.1289 200.6563,33.1289 Q198.1563,33.1289 196.8281,31.4883 Q195.5156,29.832 195.5156,26.707 Q195.5156,23.582 196.8281,21.9258 Q198.1563,20.2695 200.6563,20.2695 Q201.3594,20.2695 202,20.4258 Q202.6563,20.582 203.2188,20.8789 L203.2188,23.5977 Q202.5938,23.0195 202,22.7539 Q201.4063,22.4727 200.7813,22.4727 Q199.4375,22.4727 198.75,23.5508 Q198.0625,24.6133 198.0625,26.707 Q198.0625,28.8008 198.75,29.8789 Q199.4375,30.9414 200.7813,30.9414 Q201.4063,30.9414 202,30.6758 Q202.5938,30.3945 203.2188,29.8164 L203.2188,32.5352 Z " fill="#000000"/><text fill="#D9B8FF" font-family="Helvetica" font-size="17" lengthAdjust="spacing" textLength="71" x="225.75" y="32.7798">resource</text><line style="stroke:#000D19;stroke-width:0.5;" x1="132.5" x2="357.5" y1="46.7891" y2="46.7891"/><text fill="#D9B8FF" font-family="sans-serif" font-size="14" font-weight="bold" lengthAdjust="spacing" textLength="29" x="142.5" y="68.7842">age</text><text fill="#D9B8FF" font-family="sans-serif" font-size="14" lengthAdjust="spacing" textLength="66" x="171.5" y="68.7842">: duration</text><text fill="#D9B8FF" font-family="sans-serif" font-size="14" font-weight="bold" lengthAdjust="spacing" textLength="43" x="142.5" y="95.0811">atime</text><text fill="#D9B8FF" font-family="sans-serif" font-size="14" lengthAdjust="spacing" textLength="70" x="185.5" y="95.0811">: datetime</text><text fill="#D9B8FF" font-family="sans-serif" font-size="14" font-weight="bold" lengthAdjust="spacing" textLength="43" x="142.5" y="121.3779">ctime</text><text fill="#D9B8FF" font-family="sans-serif" font-size="14" lengthAdjust="spacing" textLength="70" x="185.5" y="121.3779">: datetime</text><text fill="#D9B8FF" font-family="sans-serif" font-size="14" font-weight="bold" lengthAdjust="spacing" textLength="14" x="142.5" y="147.6748">id</text><text fill="#D9B8FF" font-family="sans-serif" font-size="14" lengthAdjust="spacing" textLength="48" x="156.5" y="147.6748">: string</text><text fill="#D9B8FF" font-family="sans-serif" font-size="14" font-weight="bold" lengthAdjust="spacing" textLength="33" x="142.5" y="173.9717">kind</text><text fill="#D9B8FF" font-family="sans-serif" font-size="14" lengthAdjust="spacing" textLength="48" x="175.5" y="173.9717">: string</text><text fill="#D9B8FF" font-family="sans-serif" font-size="14" font-weight="bold" lengthAdjust="spacing" textLength="90" x="142.5" y="200.2686">last_access</text><text fill="#D9B8FF" font-family="sans-serif" font-size="14" lengthAdjust="spacing" textLength="66" x="232.5" y="200.2686">: duration</text><text fill="#D9B8FF" font-family="sans-serif" font-size="14" font-weight="bold" lengthAdjust="spacing" textLength="90" x="142.5" y="226.5654">last_update</text><text fill="#D9B8FF" font-family="sans-serif" font-size="14" lengthAdjust="spacing" textLength="66" x="232.5" y="226.5654">: duration</text><text fill="#D9B8FF" font-family="sans-serif" font-size="14" font-weight="bold" lengthAdjust="spacing" textLength="48" x="142.5" y="252.8623">mtime</text><text fill="#D9B8FF" font-family="sans-serif" font-size="14" lengthAdjust="spacing" textLength="70" x="190.5" y="252.8623">: datetime</text><text fill="#D9B8FF" font-family="sans-serif" font-size="14" font-weight="bold" lengthAdjust="spacing" textLength="43" x="142.5" y="279.1592">name</text><text fill="#D9B8FF" font-family="sans-serif" font-size="14" lengthAdjust="spacing" textLength="48" x="185.5" y="279.1592">: string</text><text fill="#D9B8FF" font-family="sans-serif" font-size="14" font-weight="bold" lengthAdjust="spacing" textLength="34" x="142.5" y="305.4561">tags</text><text fill="#D9B8FF" font-family="sans-serif" font-size="14" lengthAdjust="spacing" textLength="171" x="176.5" y="305.4561">: dictionary[string, string]</text></g><!--reverse link network_share to aws_efs_file_system--><g id="link_network_share_aws_efs_file_system"><path codeLine="49" d="M180.5816,660.4872 C155.8116,705.8372 137.71,738.98 123.42,765.15 " fill="none" id="network_share-backto-aws_efs_file_system" style="stroke:#FFAF37;stroke-width:2.0;"/><polygon fill="none" points="189.21,644.69,175.3159,657.6111,185.8474,663.3633,189.21,644.69" style="stroke:#FFAF37;stroke-width:2.0;"/></g><!--reverse link network_share to azure_storage_file_share--><g id="link_network_share_azure_storage_file_share"><path codeLine="50" d="M309.8892,660.4593 C334.8492,705.8093 353.1,738.98 367.5,765.15 " fill="none" id="network_share-backto-azure_storage_file_share" style="stroke:#FFAF37;stroke-width:2.0;"/><polygon fill="none" points="301.21,644.69,304.6328,663.3524,315.1456,657.5662,301.21,644.69" style="stroke:#FFAF37;stroke-width:2.0;"/></g><!--reverse link resource to network_share--><g id="link_resource_network_share"><path codeLine="51" d="M245,336.15 C245,376.71 245,401.43 245,438.46 " fill="none" id="resource-backto-network_share" style="stroke:#FFAF37;stroke-width:2.0;"/><polygon fill="none" points="245,318.15,239,336.15,251,336.15,245,318.15" style="stroke:#FFAF37;stroke-width:2.0;"/></g><!--SRC=[XPDFRvj04CNlV8gLShDgoKwQE8voIInLpIMgcjwg2Wsx0wmCksXsg4NQVlSkO1F-EJc1tllDp9jTIBL2WNd1bSWnZv1SuFRQ542GYmSYUzZPp9AuY6E8hpPZyuir_27m33cAhvZzHjOIniIFLCkzGUV4PSzw1BbFo9P6jUsPm3XleU4UjSl0kGTcqb79s0kZjj5j78_9STEBAxNUtE04iwIGZiXgjLBhxHZvSDIxUtV4Ytv5iUuVshDbdCISZ6YeTrFMH2_aPD6JVpRZDr1AcqHSzxJlRIOoI0Fz9GLb3pKTG-RwOnmZeUMgmDraAzpUgdWp2p-TWmDP7vs0WminTc6iCmnTvGjpyIS8_ftirvAypfOWmIEK-c-dpnZaWwLzPomMpLk8Hb9LCAh5uav4rcO8fZErBLojQyCtdplL-LkSKHcuR6Zdlq-JT0QdVh4aBKgkJMNBACCtqs_Vgpcb9NIs9Da6zKirbIK1Qrkdyy-yrO2nVlUQdD6q6kJn9pyK_2mEGKh_DuucD4vPrBr6JZupnq2EWyOCITjHoxeCgFhPUf-Ep2-_wl1Axlykbykvcvxdpbnvq9rSomrgW_y0]--></g></svg>

<svg xmlns="http://www.w3.org/2000/svg" width="509" height="811" viewBox="0 0 509 811"><rect width="212" height="39.789" x="7" y="765.33" fill="#3D176E" rx="2.5" ry="2.5" style="stroke:#000d19;stroke-width:.5"/><circle cx="22" cy="785.225" r="11" fill="#ADD1B2" style="stroke:#181818;stroke-width:1"/><path d="M24.969 790.865q-.578.297-1.219.438-.64.156-1.344.156-2.5 0-3.828-1.64-1.312-1.657-1.312-4.782t1.312-4.781q1.328-1.656 3.828-1.656.703 0 1.344.156.656.156 1.219.453v2.719q-.625-.578-1.219-.844-.594-.281-1.219-.281-1.343 0-2.031 1.078-.687 1.062-.687 3.156t.687 3.172q.688 1.062 2.031 1.062.625 0 1.219-.265.594-.281 1.219-.86z"/><text x="41" y="791.11" fill="#D9B8FF" font-family="Helvetica" font-size="17" textLength="170">aws_efs_file_system</text><rect width="249" height="39.789" x="253.5" y="765.33" fill="#3D176E" rx="2.5" ry="2.5" style="stroke:#000d19;stroke-width:.5"/><circle cx="268.5" cy="785.225" r="11" fill="#ADD1B2" style="stroke:#181818;stroke-width:1"/><path d="M271.469 790.865q-.578.297-1.219.438-.64.156-1.344.156-2.5 0-3.828-1.64-1.312-1.657-1.312-4.782t1.312-4.781q1.328-1.656 3.828-1.656.703 0 1.344.156.656.156 1.219.453v2.719q-.625-.578-1.219-.844-.594-.281-1.219-.281-1.344 0-2.031 1.078-.687 1.062-.687 3.156t.687 3.172q.688 1.062 2.031 1.062.625 0 1.219-.265.594-.281 1.219-.86z"/><text x="287.5" y="791.11" fill="#D9B8FF" font-family="Helvetica" font-size="17" textLength="207">azure_storage_file_share</text><rect width="220" height="205.57" x="135" y="438.76" fill="#3D176E" rx="2.5" ry="2.5" style="stroke:#000d19;stroke-width:.5"/><circle cx="173.85" cy="458.654" r="11" fill="#ADD1B2" style="stroke:#181818;stroke-width:1"/><path d="M176.819 464.295q-.578.297-1.219.438-.64.156-1.344.156-2.5 0-3.828-1.64-1.312-1.657-1.312-4.782t1.312-4.781q1.328-1.656 3.828-1.656.703 0 1.344.156.656.156 1.219.453v2.719q-.625-.579-1.219-.844-.594-.281-1.219-.281-1.344 0-2.031 1.078-.687 1.062-.687 3.156t.687 3.172q.688 1.062 2.031 1.062.625 0 1.219-.265.594-.281 1.219-.86z"/><text x="198.15" y="464.54" fill="#D9B8FF" font-family="Helvetica" font-size="17" textLength="125">network_share</text><path d="M136 478.549h218" style="stroke:#000d19;stroke-width:.5"/><text x="146" y="500.544" fill="#D9B8FF" font-family="sans-serif" font-size="14" font-weight="bold" textLength="133">share_encrypted</text><text x="279" y="500.544" fill="#D9B8FF" font-family="sans-serif" font-size="14" textLength="65">: boolean</text><text x="146" y="526.841" fill="#D9B8FF" font-family="sans-serif" font-size="14" font-weight="bold" textLength="85">share_iops</text><text x="231" y="526.841" fill="#D9B8FF" font-family="sans-serif" font-size="14" textLength="44">: int64</text><text x="146" y="553.138" fill="#D9B8FF" font-family="sans-serif" font-size="14" font-weight="bold" textLength="84">share_size</text><text x="230" y="553.138" fill="#D9B8FF" font-family="sans-serif" font-size="14" textLength="44">: int64</text><text x="146" y="579.435" fill="#D9B8FF" font-family="sans-serif" font-size="14" font-weight="bold" textLength="101">share_status</text><text x="247" y="579.435" fill="#D9B8FF" font-family="sans-serif" font-size="14" textLength="48">: string</text><text x="146" y="605.732" fill="#D9B8FF" font-family="sans-serif" font-size="14" font-weight="bold" textLength="141">share_throughput</text><text x="287" y="605.732" fill="#D9B8FF" font-family="sans-serif" font-size="14" textLength="57">: double</text><text x="146" y="632.029" fill="#D9B8FF" font-family="sans-serif" font-size="14" font-weight="bold" textLength="87">share_type</text><text x="233" y="632.029" fill="#D9B8FF" font-family="sans-serif" font-size="14" textLength="48">: string</text><rect width="227" height="310.758" x="131.5" y="7" fill="#3D176E" rx="2.5" ry="2.5" style="stroke:#000d19;stroke-width:.5"/><circle cx="200.25" cy="26.895" r="11" fill="#ADD1B2" style="stroke:#181818;stroke-width:1"/><path d="M203.219 32.535q-.578.297-1.219.438-.64.156-1.344.156-2.5 0-3.828-1.64-1.312-1.657-1.312-4.782t1.312-4.781q1.328-1.656 3.828-1.656.703 0 1.344.156.656.156 1.219.453v2.719q-.625-.578-1.219-.844-.594-.281-1.219-.281-1.344 0-2.031 1.078-.687 1.062-.687 3.156t.687 3.172q.688 1.062 2.031 1.062.625 0 1.219-.265.594-.281 1.219-.86z"/><text x="225.75" y="32.78" fill="#D9B8FF" font-family="Helvetica" font-size="17" textLength="71">resource</text><path d="M132.5 46.789h225" style="stroke:#000d19;stroke-width:.5"/><text x="142.5" y="68.784" fill="#D9B8FF" font-family="sans-serif" font-size="14" font-weight="bold" textLength="29">age</text><text x="171.5" y="68.784" fill="#D9B8FF" font-family="sans-serif" font-size="14" textLength="66">: duration</text><text x="142.5" y="95.081" fill="#D9B8FF" font-family="sans-serif" font-size="14" font-weight="bold" textLength="43">atime</text><text x="185.5" y="95.081" fill="#D9B8FF" font-family="sans-serif" font-size="14" textLength="70">: datetime</text><text x="142.5" y="121.378" fill="#D9B8FF" font-family="sans-serif" font-size="14" font-weight="bold" textLength="43">ctime</text><text x="185.5" y="121.378" fill="#D9B8FF" font-family="sans-serif" font-size="14" textLength="70">: datetime</text><text x="142.5" y="147.675" fill="#D9B8FF" font-family="sans-serif" font-size="14" font-weight="bold" textLength="14">id</text><text x="156.5" y="147.675" fill="#D9B8FF" font-family="sans-serif" font-size="14" textLength="48">: string</text><text x="142.5" y="173.972" fill="#D9B8FF" font-family="sans-serif" font-size="14" font-weight="bold" textLength="33">kind</text><text x="175.5" y="173.972" fill="#D9B8FF" font-family="sans-serif" font-size="14" textLength="48">: string</text><text x="142.5" y="200.269" fill="#D9B8FF" font-family="sans-serif" font-size="14" font-weight="bold" textLength="90">last_access</text><text x="232.5" y="200.269" fill="#D9B8FF" font-family="sans-serif" font-size="14" textLength="66">: duration</text><text x="142.5" y="226.565" fill="#D9B8FF" font-family="sans-serif" font-size="14" font-weight="bold" textLength="90">last_update</text><text x="232.5" y="226.565" fill="#D9B8FF" font-family="sans-serif" font-size="14" textLength="66">: duration</text><text x="142.5" y="252.862" fill="#D9B8FF" font-family="sans-serif" font-size="14" font-weight="bold" textLength="48">mtime</text><text x="190.5" y="252.862" fill="#D9B8FF" font-family="sans-serif" font-size="14" textLength="70">: datetime</text><text x="142.5" y="279.159" fill="#D9B8FF" font-family="sans-serif" font-size="14" font-weight="bold" textLength="43">name</text><text x="185.5" y="279.159" fill="#D9B8FF" font-family="sans-serif" font-size="14" textLength="48">: string</text><text x="142.5" y="305.456" fill="#D9B8FF" font-family="sans-serif" font-size="14" font-weight="bold" textLength="34">tags</text><text x="176.5" y="305.456" fill="#D9B8FF" font-family="sans-serif" font-size="14" textLength="171">: dictionary[string, string]</text><g fill="none"><path d="M180.582 660.487A1106933 1106933 0 0 0 123.42 765.15" style="stroke:#ffaf37;stroke-width:2"/><path d="m189.21 644.69-13.894 12.921 10.531 5.752z" style="stroke:#ffaf37;stroke-width:2"/></g><path fill="none" d="M309.89 660.46c24.96 45.35 43.21 78.52 57.61 104.69m-66.29-120.46 3.423 18.662 10.513-5.786zM245 336.15v102.31m0-120.31-6 18h12z" style="stroke:#ffaf37;stroke-width:2"/></svg>
